X: 9463
T: Daorla
R: reel
M: 4/4
K: Gmajor
G3 B dG ~G2|dAFA dAFA|G2 BG dGBd|edfa gedB|
G2 BG dGBG|dAFA dAFA|G2 BG dGBd|edfa ({f}~g3) f||
g2 dg bgdg|{a}gdBG FADg|({a}g/f/g) dg bgdB|defa ({f}~g3) f|
g2 dg bgdg|{a}gdBG FADF|G2 BG dGBd|edfa gedB||

